X:37
T:Collage Hornpipe. LIT.037, The
M:4/4
Q:1/4=170
L:1/8
B:Wm. Litten MS, 1802
Z:Village Music Project 2017 Anne Wride
K:D
fe | d2D2D2 AG | FA d2d2 fd | e2E2E2 ed | c2 a2 a2 bc' |
d'c' ba ba gf | gf ed dc BA | Bd ce df eg | f2d2d2 :|
|: AG | FA dA FA dA | B2G2G2 BA | GB eB GB eB | c2A2A2gf |
g2a2ba gf | gf ed dc BA | Bd ce df eg | f2d2d2 :|

